X:94
T:Black Robin
C:A. Simons
L:1/8
M:6/8
R:Jig
S:Colin Hume's website,  colinhume.com  - chords can also be printed below the stave.
Q:3/8=112
K:G
P:A
"G"Bcd dcB | "Em"G2A G3 | "Am"ABc c2A | "D7"F6 |\
"G"G2G GAB | "Am"A2A ABc | "A7"BAG e2G | "D7"B3 A3 |
P:B
"G"Bcd dcB | "Em"G2A G3 | "Am"ABc c2A | "D7"F6 |\
"G"G2G GAB | "Am"A2A ABc | "G/D"Bcd "D7"B2A | "G"G6 |
P:C
"G"dBd "D7"cBA | "Em"B2d G3 | "Am"cBA ecB | "D7"A6 |\
"G"B2d "D"cBA | "Em"G2A B3 | "A"A2B "A7"^cde | "D"d6 |
P:D
"C"efg gfe | "G"d2c B3 | "Am"cde dcB | "D"A3 "D7"d3 |\
"G"g2d "C"edc | "G"Bcd "Em"e2d | "C"g2e "D7"fga | "G"g6 |]

